newicons/emoji_rounded_symbol_for_cai.svg

<?xml version="1.0" encoding="UTF-8" standalone="no"?>
<svg
   version="1.2"
   viewBox="0 0 48 48"
   id="svg10"
   xmlns="http://www.w3.org/2000/svg"
   xmlns:svg="http://www.w3.org/2000/svg">
  <defs
     id="defs1" />
  <path
     d="m 17.857143,12.482143 h 3.839286 V 6.3392863 h 4.607142 v 6.1428567 h 3.839286"
     fill="none"
     stroke="#ffffff"
     stroke-linecap="round"
     stroke-linejoin="round"
     stroke-width="1"
     id="path1" />
  <path
     d="m 17.857143,35.517857 h 3.839286 v 6.142857 h 4.607142 v -6.142857 h 3.839286"
     fill="none"
     stroke="#ffffff"
     stroke-linecap="round"
     stroke-linejoin="round"
     stroke-width="1"
     id="path2" />
  <path
     d="M 30.142857,24 H 41.660714"
     fill="none"
     stroke="#ffffff"
     stroke-linecap="round"
     stroke-linejoin="round"
     stroke-width="1"
     id="path3" />
  <path
     d="M 17.857143,24 H 6.3392859"
     fill="none"
     stroke="#ffffff"
     stroke-linecap="round"
     stroke-linejoin="round"
     stroke-width="1"
     id="path4" />
  <path
     d="M 17.857143,7.491072 V 40.508928 A 17.660714,17.660714 0 0 1 6.7232144,27.839286 h 7.2946426 v 5.758928 a 13.821428,13.821428 0 0 1 -1.919642,-2.303571"
     fill="none"
     stroke="#ffffff"
     stroke-linecap="round"
     stroke-linejoin="round"
     stroke-width="1"
     id="path5" />
  <path
     d="M 17.857143,7.491072 A 17.660714,17.660714 0 0 0 6.7232144,20.160715 h 7.2946426 v -5.758928 a 13.821428,13.821428 0 0 0 -1.919642,2.303571"
     fill="none"
     stroke="#ffffff"
     stroke-linecap="round"
     stroke-linejoin="round"
     stroke-width="1"
     id="path6" />
  <path
     d="M 30.142857,7.491072 V 40.508928 A 17.660714,17.660714 0 0 0 41.276785,27.839286 h -7.294642 v 5.758928 a 13.821428,13.821428 0 0 0 1.919642,-2.303571"
     fill="none"
     stroke="#ffffff"
     stroke-linecap="round"
     stroke-linejoin="round"
     stroke-width="1"
     id="path7" />
  <path
     d="m 30.142857,7.491072 a 17.660714,17.660714 0 0 1 11.133928,12.669643 h -7.294642 v -5.758928 a 13.821428,13.821428 0 0 1 1.919642,2.303571"
     fill="none"
     stroke="#ffffff"
     stroke-linecap="round"
     stroke-linejoin="round"
     stroke-width="1"
     id="path8" />
  <path
     d="M 2.5000001,24 A 21.5,21.5 0 1 0 45.5,24 21.5,21.5 0 1 0 2.5000001,24"
     fill="none"
     stroke="#ffffff"
     stroke-linecap="round"
     stroke-linejoin="round"
     stroke-width="1"
     id="path9" />
  <path
     d="m 21.696429,16.321429 h 4.607142 V 31.678572 H 21.696429 V 16.321429"
     fill="none"
     stroke="#ffffff"
     stroke-linecap="round"
     stroke-linejoin="round"
     stroke-width="1"
     id="path10" />
</svg>

<?xml version="1.0" encoding="UTF-8"?><svg id="a" xmlns="http://www.w3.org/2000/svg" viewBox="0 0 48 48"><defs><style>.l{fill:none;stroke:#fff;stroke-linecap:round;stroke-linejoin:round;}</style></defs><path id="b" class="l" d="M17.8571,12.4821h3.8393v-6.1429h4.6071v6.1429h3.8393"/><path id="c" class="l" d="M17.8571,35.5179h3.8393v6.1429h4.6071v-6.1429h3.8393"/><path id="d" class="l" d="M30.1429,24h11.5179"/><path id="e" class="l" d="M17.8571,24H6.3393"/><path id="f" class="l" d="M17.8571,7.4911v33.0179c-5.6185-2.0636-9.8094-6.8326-11.1339-12.6696h7.2946v5.7589c-.7215-.696-1.3652-1.4684-1.9196-2.3036"/><path id="g" class="l" d="M17.8571,7.4911c-5.6185,2.0636-9.8094,6.8326-11.1339,12.6696h7.2946v-5.7589c-.7215.696-1.3652,1.4684-1.9196,2.3036"/><path id="h" class="l" d="M30.1429,7.4911v33.0179c5.6185-2.0636,9.8094-6.8326,11.1339-12.6696h-7.2946v5.7589c.7215-.696,1.3652-1.4684,1.9196-2.3036"/><path id="i" class="l" d="M30.1429,7.4911c5.6185,2.0636,9.8094,6.8326,11.1339,12.6696h-7.2946v-5.7589c.7215.696,1.3652,1.4684,1.9196,2.3036"/><path id="j" class="l" d="M2.5,24c0,11.8741,9.6259,21.5,21.5,21.5s21.5-9.6259,21.5-21.5S35.8741,2.5,24,2.5,2.5,12.1259,2.5,24"/><path id="k" class="l" d="M21.6964,16.3214h4.6071v15.3571h-4.6071v-15.3571"/></svg>
